X:1
L:1/8
Q:1/4=120
M:2/4
K:Amin
""Am"" A,A, A,A, |""Am"" A,B, CD |""Am"" E2 EE |""A7"" E2 G2 |""Dm"" A2 AA |""G7"" A2 GF |""C"" F2 ED | 
""E7"" E2 z2 |:""Dm"" DD DD |""Dm"" DE FA |""Am"" EE ED |""Am"" C2 A,A, |""E7"" B,2 B,C |""E7"" D2 CB, | 
""E7"" B,2 A,^G, |""Am"" A,2 z2 :|
